src/assets/home-icon.svg

<!DOCTYPE svg PUBLIC "-//W3C//DTD SVG 1.1//EN" "http://www.w3.org/Graphics/SVG/1.1/DTD/svg11.dtd">
<!-- Uploaded to: SVG Repo, www.svgrepo.com, Transformed by: SVG Repo Mixer Tools -->
<svg width="800px" height="800px" viewBox="0 0 24 24" fill="none" xmlns="http://www.w3.org/2000/svg" stroke="#949494">
<g id="SVGRepo_bgCarrier" stroke-width="0"/>
<g id="SVGRepo_tracerCarrier" stroke-linecap="round" stroke-linejoin="round"/>
<g id="SVGRepo_iconCarrier"> <path fill-rule="evenodd" clip-rule="evenodd" d="M11.3103 1.77586C11.6966 1.40805 12.3034 1.40805 12.6897 1.77586L20.6897 9.39491L23.1897 11.7759C23.5896 12.1567 23.605 12.7897 23.2241 13.1897C22.8433 13.5896 22.2103 13.605 21.8103 13.2241L21 12.4524V20C21 21.1046 20.1046 22 19 22H14H10H5C3.89543 22 3 21.1046 3 20V12.4524L2.18966 13.2241C1.78972 13.605 1.15675 13.5896 0.775862 13.1897C0.394976 12.7897 0.410414 12.1567 0.810345 11.7759L3.31034 9.39491L11.3103 1.77586ZM5 10.5476V20H9V15C9 13.3431 10.3431 12 12 12C13.6569 12 15 13.3431 15 15V20H19V10.5476L12 3.88095L5 10.5476ZM13 20V15C13 14.4477 12.5523 14 12 14C11.4477 14 11 14.4477 11 15V20H13Z" fill="#ffffff"/> </g>
</svg>

<svg xmlns="http://www.w3.org/2000/svg" width="800" height="800" fill="none" stroke="#949494" viewBox="0 0 24 24"><path fill="#fff" fill-rule="evenodd" d="M11.31 1.776a1 1 0 0 1 1.38 0l8 7.619 2.5 2.38a1 1 0 0 1-1.38 1.45l-.81-.773V20a2 2 0 0 1-2 2H5a2 2 0 0 1-2-2v-7.548l-.81.772a1 1 0 1 1-1.38-1.448l2.5-2.381 8-7.62ZM5 10.548V20h4v-5a3 3 0 1 1 6 0v5h4v-9.452L12 3.88l-7 6.667ZM13 20v-5a1 1 0 1 0-2 0v5h2Z" clip-rule="evenodd"/></svg>
